X: 341
T: Binnaz Kızı Naz Kızı
C: Ali Bozan
O: Turkey
F: http://compmusic.upf.edu/node/140
N: segah--turku--aksak--binnaz--usak
N: makam= segah
N: form= turku
N: usul= aksak = 9/8
M: 9/8
L: 1/16
K: C _1/4B _1/4e ^f 
Q: 1/4=174
%%MIDI tuningsystem comma53
de2e e2e2 e2de f4 ed | d2 dcBc d2dc cBB4z2  | 
w:  ARANAĞME  |   | 
de2e e2e2 e2de f4 ed | d2 dcBc d2dc cBB4z2  | 
w:  ARANAĞME  |   | 
de2e e2e2 e2de f4 ed | d2 dcBc d2dc cBB4z2  | 
w:   |   | 
de2e e2e2 e2de f4 ed | d2 dcBc d2dc cBB4z2  | 
w:   |   | 
fgg2 gg2z g2g2 gaf4 | f2 fge2 d2e2 e2e=f d4  | 
w:  Bin *  naz  kı zı  naz  kı zı    |  Ya nak *  la rı  kır mı zı    | 
fgg2 gg2z g2g2 gaf4 | f2 fge2 d2e2 e2e=f d4  | 
w:  Bin *  naz  kı zı  naz  kı zı    |  Ya nak *  la rı  kır mı zı    | 
de2e e2e2 e2de f4 ed | d2 dcBc d2dc cBB4z2  | 
w:  Al  *  ya na ğın  üs *  *  tü ne    |  Doğ du  *  sa *  bah  yıl *  dı *  zı    | 
de2e e2e2 e2de f4 ed | d2 dcBc d2dc cBB4z2  | 
w:  Al  *  ya na ğın  üs *  *  tü ne    |  Doğ du  *  sa *  bah  yıl *  dı *  zı    | 
de2e e2e2 e2de f4 ed | d2 dcBc d2dc cBB4z2  | 
w:  Ah  *  gü ze lim  gü *  *  ze lim    |  Dur  i *  ki *  miz  gi *  de *  lim    | 
de2e e2e2 e2de f4 ed | d2 dcBc d2dc cBB4z2  | 
w:  Ah  *  gü ze lim  gü *  *  ze lim    |  Dur  i *  ki *  miz  gi *  de *  lim    | 
de2e e2e2 e2de f4 ed | d2 dcBc d2dc cBB4z2  | 
w:  Sev *  me di ğim  oğ *  *  la na    |  Ge lin  *  o *  lup  gi *  de *  lim    | 
de2e e2e2 e2de f4 ed | d2 dcBc d2dc cBB4z2  | 
w:  Sev *  me di ğim  oğ *  *  la na    |  Ge lin  *  o *  lup  gi *  de *  lim    | 
de2e e2e2 e2de f4 ed | d2 dcBc d2dc cBB4z2  | 
w:  ARANAĞME  |   | 
de2e e2e2 e2de f4 ed | d2 dcBc d2dc cBB4z2  | 
w:  ARANAĞME  |   | 
de2e e2e2 e2de f4 ed | d2 dcBc d2dc cBB4z2  | 
w:   |   | 
de2e e2e2 e2de f4 ed | d2 dcBc d2dc cBB4z2  | 
w:   |   | 
fgg2 gg2z g2g2 gaf4 | f2 fge2 d2e2 e2e=f d4  | 
w:  Bin *  naz  kı zı  naz  kı zı    |  Ya nak *  la rı  kır mı zı    | 
fgg2 gg2z g2g2 gaf4 | f2 fge2 d2e2 e2e=f d4  | 
w:  Bin *  naz  kı zı  naz  kı zı    |  Ya nak *  la rı  kır mı zı    | 
de2e e2e2 e2de f4 ed | d2 dcBc d2dc cBB4z2  | 
w:  Al  *  ya na ğın  üs *  *  tü ne    |  Doğ du  *  sa *  bah  yıl *  dı *  zı    | 
de2e e2e2 e2de f4 ed | d2 dcBc d2dc cBB4z2  | 
w:  Al  *  ya na ğın  üs *  *  tü ne    |  Doğ du  *  sa *  bah  yıl *  dı *  zı    | 
de2e e2e2 e2de f4 ed | d2 dcBc d2dc cBB4z2  | 
w:  Ah  *  gü ze lim  gü *  *  ze lim    |  Dur  i *  ki *  miz  gi *  de *  lim    | 
de2e e2e2 e2de f4 ed | d2 dcBc d2dc cBB4z2  | 
w:  Ah  *  gü ze lim  gü *  *  ze lim    |  Dur  i *  ki *  miz  gi *  de *  lim    | 
de2e e2e2 e2de f4 ed | d2 dcBc d2dc cBB4z2  | 
w:  Sev *  me di ğim  oğ *  *  la na    |  Ge lin  *  o *  lup  gi *  de *  lim    | 
de2e e2e2 e2de f4 ed | d2 dcBc d2dc cBB4z2  | 
w:  Sev *  me di ğim  oğ *  *  la na    |  Ge lin  *  o *  lup  gi *  de *  lim    | 
|


